rider/src/main/resources/unityIcons/fileTypes/uxml.svg

<svg xmlns="http://www.w3.org/2000/svg" width="16" height="16" viewBox="0 0 16 16">
  <g id="Uxml" fill="none" fill-rule="evenodd" stroke="none" stroke-width="1">
    <path id="Fill-2" fill="#40B6E0" d="M8,9 L4,9 C3.448,9 3,8.553 3,8 L3,5 C3,4.447 3.448,4 4,4 L12,4 C12.552,4 13,4.447 13,5 L13,7.3 L14,8.382 L14,5 C14,3.896 13.104,3 12,3 L4,3 C2.896,3 2,3.896 2,5 L2,9 C2,10.104 2.896,11 4,11 L8,11 L8,9 Z"/>
    <path id="Fill-4" fill="#9AA7B0" d="M12.7295,11.5586 L13.0005,13.8466 L12.6505,13.9946 L11.0955,12.2826 L10.0005,12.9996 L10.0005,6.9996 L13.9795,11.3056 L12.7295,11.5586 Z M14.7135,10.6266 L10.7345,6.3216 C10.4555,6.0186 10.0165,5.9186 9.6355,6.0686 C9.2525,6.2186 9.0005,6.5876 9.0005,6.9996 L9.0005,12.9996 C9.0005,13.3676 9.2015,13.7046 9.5245,13.8796 C9.8485,14.0546 10.2415,14.0376 10.5475,13.8366 L10.9295,13.5866 L11.9105,14.6666 C12.1045,14.8796 12.3755,14.9946 12.6515,14.9946 C12.7825,14.9946 12.9145,14.9686 13.0405,14.9146 L13.3895,14.7676 C13.7995,14.5946 14.0455,14.1706 13.9935,13.7296 L13.8305,12.3566 L14.1775,12.2866 C14.5315,12.2136 14.8195,11.9566 14.9305,11.6136 C15.0415,11.2696 14.9585,10.8926 14.7135,10.6266 L14.7135,10.6266 Z"/>
  </g>
</svg>

<svg width="16" height="16" viewBox="0 0 16 16" xmlns="http://www.w3.org/2000/svg">
  <path fill="#40b6e0" d="M8 9H4a1 1 0 0 1-1-1V5a1 1 0 0 1 1-1h8a1 1 0 0 1 1 1v2.3l1 1.082V5a2 2 0 0 0-2-2H4a2 2 0 0 0-2 2v4a2 2 0 0 0 2 2h4V9Z"/>
  <path fill="#9aa7b0" d="M12.729 11.559 13 13.847l-.35.148-1.555-1.712L10 13V7l3.979 4.306-1.25.253Zm1.984-.932-3.979-4.305A1 1 0 0 0 9 7v6a1 1 0 0 0 1.547.837l.382-.25.981 1.08a1.003 1.003 0 0 0 1.13.248l.349-.147a1 1 0 0 0 .604-1.038l-.163-1.373.347-.07a1.003 1.003 0 0 0 .536-1.66Z"/>
</svg>
